subcellular/src/assets/icons/svg/film.svg

<svg xmlns="http://www.w3.org/2000/svg" width="32" height="32" viewBox="0 0 32 32"><path fill="#C8C8C8" d="M2 2v28h28V2H2z"/><path fill="#FFF" d="M29.252 4.787h-2.039V2.748h2.039v2.039zm0 4.078h-2.039V6.826h2.039v2.039zm0 4.077h-2.039v-2.039h2.039v2.039zm0 4.078h-2.039v-2.04h2.039v2.04zm0 4.077h-2.039v-2.038h2.039v2.038zm0 4.077h-2.039v-2.039h2.039v2.039zm0 4.078h-2.039v-2.039h2.039v2.039zM4.787 4.787H2.748V2.748h2.039v2.039zm0 4.078H2.748V6.826h2.039v2.039zm0 4.077H2.748v-2.039h2.039v2.039zm0 4.078H2.748v-2.04h2.039v2.04zm0 4.077H2.748v-2.038h2.039v2.038zm0 4.077H2.748v-2.039h2.039v2.039zm0 4.078H2.748v-2.039h2.039v2.039z"/><path fill="none" d="M25.813 2v3.62c0 .668-.539 1.206-1.204 1.206H7.508A1.205 1.205 0 0 1 6.303 5.62V2H2v28h4.303v-3.211c0-.665.54-1.205 1.205-1.205h17.101c.665 0 1.204.54 1.204 1.206V30H30V2h-4.187zm0 19.312c0 .665-.539 1.205-1.204 1.205H7.508a1.205 1.205 0 0 1-1.205-1.205V11.098c0-.667.54-1.205 1.205-1.205h17.101c.665 0 1.204.542 1.204 1.207v10.212z"/><path fill="#FFF" d="M24.608 9.893h-17.1c-.665 0-1.205.538-1.205 1.206v10.213c0 .665.54 1.205 1.205 1.205h17.101c.665 0 1.204-.539 1.204-1.205V11.098c0-.664-.54-1.204-1.205-1.205zm0 15.691h-17.1c-.665 0-1.205.54-1.205 1.206V30h19.509v-3.211a1.204 1.204 0 0 0-1.204-1.205zM7.508 6.826h17.101c.665 0 1.204-.538 1.204-1.206V2H6.303v3.62c0 .665.54 1.206 1.205 1.206z"/></svg>

<?xml version="1.0" encoding="utf-8"?>
<!-- Generator: Adobe Illustrator 14.0.0, SVG Export Plug-In . SVG Version: 6.00 Build 43363)  -->
<!DOCTYPE svg PUBLIC "-//W3C//DTD SVG 1.1//EN" "http://www.w3.org/Graphics/SVG/1.1/DTD/svg11.dtd">
<svg version="1.1" id="Layer_1" xmlns="http://www.w3.org/2000/svg" xmlns:xlink="http://www.w3.org/1999/xlink" x="0px" y="0px"
	 width="32px" height="32px" viewBox="0 0 32 32" enable-background="new 0 0 32 32" xml:space="preserve">
<path fill="#C8C8C8" d="M2,2v28h28V2H2z"/>
<path fill="#FFFFFF" d="M29.252,4.787h-2.039V2.748h2.039V4.787z M29.252,8.865h-2.039V6.826h2.039V8.865z M29.252,12.942h-2.039
	v-2.039h2.039V12.942z M29.252,17.02h-2.039V14.98h2.039V17.02z M29.252,21.097h-2.039v-2.038h2.039V21.097z M29.252,25.174h-2.039
	v-2.039h2.039V25.174z M29.252,29.252h-2.039v-2.039h2.039V29.252z M4.787,4.787H2.748V2.748h2.039V4.787z M4.787,8.865H2.748V6.826
	h2.039V8.865z M4.787,12.942H2.748v-2.039h2.039V12.942z M4.787,17.02H2.748V14.98h2.039V17.02z M4.787,21.097H2.748v-2.038h2.039
	V21.097z M4.787,25.174H2.748v-2.039h2.039V25.174z M4.787,29.252H2.748v-2.039h2.039V29.252z"/>
<path fill="none" d="M25.813,2v3.62c0,0.668-0.539,1.206-1.204,1.206H7.508c-0.665,0-1.205-0.538-1.205-1.206V2H2v28h4.303v-3.211
	c0-0.665,0.54-1.205,1.205-1.205h17.101c0.665,0,1.204,0.54,1.204,1.206V30H30V2H25.813z M25.813,21.312
	c0,0.665-0.539,1.205-1.204,1.205H7.508c-0.665,0-1.205-0.539-1.205-1.205V11.098c0-0.667,0.54-1.205,1.205-1.205h17.101
	c0.665,0,1.204,0.542,1.204,1.207V21.312L25.813,21.312z"/>
<path fill="#FFFFFF" d="M24.608,9.893H7.508c-0.665,0-1.205,0.538-1.205,1.206v10.213c0,0.665,0.54,1.205,1.205,1.205h17.101
	c0.665,0,1.204-0.539,1.204-1.205V11.098C25.813,10.434,25.273,9.894,24.608,9.893L24.608,9.893z M24.608,25.584H7.508
	c-0.665,0-1.205,0.54-1.205,1.206V30h19.509v-3.211C25.813,26.124,25.273,25.584,24.608,25.584z M7.508,6.826h17.101
	c0.665,0,1.204-0.538,1.204-1.206V2H6.303v3.62C6.303,6.285,6.843,6.826,7.508,6.826z"/>
</svg>
